src/assets/img/dashboard/moonpay.svg

<svg fill="none" height="40" viewBox="0 0 40 40" width="40" xmlns="http://www.w3.org/2000/svg" xmlns:xlink="http://www.w3.org/1999/xlink"><clipPath id="a"><path d="m0 0h40v40h-40z"/></clipPath><g clip-path="url(#a)"><path d="m33.8497 12.3006c3.397 0 6.1503-2.75329 6.1503-6.1503 0-3.39702-2.7533-6.1503-6.1503-6.1503-3.3968 0-6.1503 2.75328-6.1503 6.1503 0 3.39701 2.7535 6.1503 6.1503 6.1503zm-18.8583 27.6994c-8.27989 0-14.9914-6.7115-14.9914-14.9914 0-8.2793 6.71151-14.9913 14.9914-14.9913 8.2798 0 14.9913 6.712 14.9913 14.9913 0 8.2799-6.7115 14.9914-14.9913 14.9914z" fill="#7d00ff"/></g></svg>

<svg width="40" height="40" viewBox="0 0 40 40" fill="none" xmlns="http://www.w3.org/2000/svg">
<g clip-path="url(#clip0_113_21470)">
<path d="M33.8497 12.3006C37.2467 12.3006 40 9.54731 40 6.1503C40 2.75328 37.2467 0 33.8497 0C30.4529 0 27.6994 2.75328 27.6994 6.1503C27.6994 9.54731 30.4529 12.3006 33.8497 12.3006ZM14.9914 40C6.71151 40 0 33.2885 0 25.0086C0 16.7293 6.71151 10.0173 14.9914 10.0173C23.2712 10.0173 29.9827 16.7293 29.9827 25.0086C29.9827 33.2885 23.2712 40 14.9914 40Z" fill="#7D00FF"/>
</g>
<defs>
<clipPath id="clip0_113_21470">
<rect width="40" height="40" fill="white"/>
</clipPath>
</defs>
</svg>
